!!!SOCIAL_FUNCTION:	songs connected with legends of manabus
!!!PDT:	1932
!!!OTL: No_83_Manabus_Invites_the_Ducks_to_a_Dance.krn
!!!REG: Wisconsin
!!!LANG: Non-Tone
!!!LING_GROUP: Algonquin
**kern
*staff1
=1-
=
*clefF4
*k[f#c#g#d#a#]
*M2/4
2c#\
=2
8c#\L
8B\J
8B\L
8B\J
=3
4.B\
8r
=4
8B\L
8B\J
8F#\L
16B\L
16G#\JJ
=5
8F#\L
8F#\J
8F#\L
16B\L
16G#\JJ
=6
8F#\L
8F#\J
8F#\L
16B\L
16G#\JJ
=7
8F#\L
8F#\J
8F#\L
16B\L
16G#\JJ
=8
8F#\L
8F#\J
8F#\L
16B\L
16G#\JJ
=9
8F#\L
8F#\J
4r
==:|!
*-
